svgs/nubank.svg

<svg width="24" height="24" viewBox="0 0 24 24" fill="none" xmlns="http://www.w3.org/2000/svg">
<path d="M8.46007 7.07559C8.04717 7.0713 7.63785 7.15251 7.25786 7.3141C6.87787 7.4757 6.53544 7.71419 6.25211 8.01457H6.25061C6.21011 8.01232 6.17036 8.01307 6.12911 8.01307C5.55648 8.01586 4.99548 8.17491 4.5066 8.47308C4.01772 8.77124 3.61951 9.19721 3.35491 9.70504C3.12391 10.155 3.03767 10.638 3.01067 11.13C2.98667 11.5718 3.01067 12.0195 3.01067 12.4575V16.6964H5.38812C5.38812 16.6964 5.38962 14.6085 5.38812 12.813C5.38737 11.6048 5.37912 10.5278 5.38812 10.3065C5.43012 9.26105 5.71587 8.57781 6.24911 8.01907C8.01832 8.01982 9.16355 9.22505 9.22655 11.1443C9.24155 11.5853 9.24605 13.9417 9.24605 13.9417V16.6964H11.622V12.9727C11.622 11.8478 11.6318 10.8728 11.553 10.2015C11.334 8.32657 10.188 7.07559 8.45932 7.07559H8.46007ZM14.7524 7.30059L12.378 7.30359V11.0273C12.378 12.153 12.3682 13.1272 12.447 13.7985C12.666 15.6734 13.812 16.9244 15.5399 16.9244C15.9528 16.9287 16.3622 16.8475 16.7421 16.6859C17.1221 16.5243 17.4646 16.2858 17.7479 15.9854H17.7494C17.7899 15.9877 17.8311 15.9869 17.8724 15.9869C19.0296 15.9869 20.1149 15.3247 20.6451 14.2957C20.8768 13.8457 20.9623 13.362 20.9893 12.8707C21.0133 12.4282 20.9893 11.9805 20.9893 11.5433V7.30359H18.6119C18.6119 7.30359 18.6104 9.39155 18.6119 11.187C18.6134 12.3952 18.6209 13.4722 18.6119 13.6935C18.5699 14.7382 18.2841 15.4222 17.7509 15.9809C15.9817 15.9802 14.8364 14.7742 14.7734 12.8557C14.7584 12.4147 14.7524 11.3228 14.7524 10.056V7.30059Z" fill="black"/>
</svg>

<svg xmlns="http://www.w3.org/2000/svg" width="24" height="24" fill="none" viewBox="0 0 24 24"><path fill="#000" d="M8.46 7.076a2.993 2.993 0 0 0-2.208.939h-.001c-.04-.003-.08-.002-.122-.002a3.145 3.145 0 0 0-2.774 1.692c-.231.45-.317.933-.344 1.425-.024.442 0 .89 0 1.327v4.24h2.377s.002-2.088 0-3.884c0-1.208-.009-2.285 0-2.507.042-1.045.328-1.728.861-2.287 1.77 0 2.915 1.206 2.978 3.125.015.441.02 2.798.02 2.798v2.754h2.375v-3.723c0-1.125.01-2.1-.069-2.772-.219-1.874-1.365-3.125-3.094-3.125h.001m6.292.225-2.374.003v3.723c0 1.126-.01 2.1.069 2.772.219 1.874 1.365 3.125 3.093 3.125a2.992 2.992 0 0 0 2.208-.939h.001c.04.003.082.002.123.002a3.144 3.144 0 0 0 2.773-1.691c.232-.45.317-.934.344-1.425.024-.443 0-.89 0-1.328v-4.24h-2.377s-.002 2.089 0 3.884c.001 1.208.009 2.285 0 2.507-.042 1.044-.328 1.728-.861 2.287-1.77 0-2.915-1.207-2.978-3.125-.015-.441-.02-1.533-.02-2.8V7.301"/></svg>
